X:1
T:Clear Away in the Morning
M:4/4
L:1/8
K:D
 A2 A2 A2 BB| A4 F4| E3 F G2 GA|G-F F2 E2- EA| B B2 B A2 F2| E4 D4|\
 D4 D B,3| A,8|
